X:442
T:Gilford. (p).1701.PLFD1.442, The
M:4/4
L:1/8
Q:1/2=100
S:Playford, Dancing Master,11th Ed.,1701.
O:England;London
Z:Chris Partington.
K:D
"_Scordatura--Set up the biggest string one note higher()sic"\
[A,DAe]||:G,A,B,2A,B,C2|B,4D2EF|G2AB AFED|B,DEFE4|
G,A,B,2A,B,C2|B,6D2|EFG2ABAD|E2D6:|
|:efg2fga2|g2f2e2dc|d2efg2f2|e2d2e2dc|
efg2fga2|g2f2e2dc|Bcd2e2dc|d8:|
